X: 40435
T: Tom Mhick's
R: polka
M: 2/4
K: Gmajor
|:G>A Bd|ed BA/B/|dc AB/d/|ed B>d|
G>A Bd|ed BA/B/|dc A>B|AG G2:|
|:gf ed|ed BA/B/|dc AB/d/|ed B>d|
gf ed|ed BA/B/|dc A>B|AG G2:|

